X:1
T: Buddy MacMaster's Jig
C:Sandy MacIntyre
R:Jig
Q:180
K:D
M:6/8
L:1/16
|:fe|d6 D2EFG2|A2F2D2 D2F2A2|G6 B,2C2D2|E2C2A,2 A,4c2|
d6 D2F2G2|A2F2D2 c2B2A2|e2c2A2 g2e2c2|d6 d4:|
|:ag|f6 d2efg2|a2f2d2 d2f2a2|g6 B2c2d2|e2c2A2 A4g2|
|1f6 d2f2g2|a2f2d2 d2e2f2|g4B2 c2B2A2|d6 d4:|
|2f2g2a2 g2f2e2|d2c2B2 A2F2A2|c2B2A2 g2e2c2|d6 d4||
